!!!COM:	Johannes Ockeghem
!!!CDT:	~1425-1497/02/06
!!!OPR:	Missa Fors seulement
!!!ONM:	3
!!!OTL:	Credo
!!!AGN:	Mass; Credo
!!!SCT:	Ock1007c
!!!SCA:	Ock1007c
!!!voices:	5
!!!voices-OPR:	5
**kern	**kern	**kern	**kern	**kern
*staff5	*staff4	*staff3	*staff2	*staff1
*Ivox	*Ivox	*Ivox	*Ivox	*Ivox
*I"Bassus	*I"Tenor2	*I"Tenor	*I"Secundus puer	*I"Discantus
*I'B	*I'T2	*I'T	*I'Sp	*I'D
*>[A,B]	*>[A,B]	*>[A,B]	*>[A,B]	*>[A,B]
*>A	*>A	*>A	*>A	*>A
*clefF4	*clefGv2	*clefGv2	*clefG2	*clefG2
*k[]	*k[]	*k[]	*k[]	*k[]
*M3/1	*M3/1	*M3/1	*M3/1	*M3/1
*met(O)	*met(O)	*met(O)	*met(O)	*met(O)
!!incipit: 5
!!section: Patrem
!!!OMD: Patrem
=1-	=1-	=1-	=1-	=1-
1AA	0.r	0A	0.r	0.r
1AA	.	.	.	.
1AA	.	1A	.	.
=2	=2	=2	=2	=2
2C/	0.r	2A/	0.r	0.r
2.D\	.	2A/	.	.
.	.	2A/	.	.
4C/	.	.	.	.
2AA/	.	1A	.	.
2C/	.	.	.	.
2D\	.	4G/	.	.
.	.	4F/	.	.
=3	=3	=3	=3	=3
1E	1E	1E	1e	1e
1r	0E	1r	1.e	0g
1r	.	1r	.	.
.	.	.	4d/	.
.	.	.	4c/	.
=4	=4	=4	=4	=4
0.r	1E	0.r	1.B	1g
.	1E	.	.	1g
.	.	.	2c/	.
.	2.E/	.	2B/	2.g/
.	.	.	[2e/	.
.	4F/	.	.	4a/
=5	=5	=5	=5	=5
0.r	2G/	0.r	2e/]	2b\
.	2A/	.	2e/	2cc\
.	2G/	.	1e	2b\
.	2.A/	.	.	1cc
.	.	.	2c/	.
.	8G/L	.	.	.
.	8F/J	.	.	.
.	4E/	.	2d/	2a/
.	4D/	.	.	.
=6	=6	=6	=6	=6
1r	0E	0.r	1B	1g
1.AA	.	.	1.e	2r
.	.	.	.	1cc
.	2r	.	.	.
2AA/	[2A/	.	2e/	2cc\
=7	=7	=7	=7	=7
2AA/	2A/]	1r	2e/	2cc\
2AA/	4G/	.	2e/	2cc\
.	4F/	.	.	.
2.C/	1E	1r	2e/	1cc
.	.	.	1e	.
8BB/L	.	.	.	.
8AA/J	.	.	.	.
2GG/	1r	1E	.	2b\
2AA/	.	.	2c/	2a/
=8	=8	=8	=8	=8
1E	0.r	1G	1B	1b
1r	.	1A	1c	2r
.	.	.	.	2e/
1r	.	1B	1d	2d/
.	.	.	.	[2g/
=9	=9	=9	=9	=9
0.r	0.r	1c	1e	2g/]
.	.	.	.	2a/
.	.	1.d	2d/	1b
.	.	.	1f	.
.	.	.	.	2a/
.	.	2c\	2e/	2cc\
=10	=10	=10	=10	=10
0.r	0.r	2B\	2d/	2dd\
.	.	2A/	2c/	1ee
.	.	1G	1B	.
.	.	.	.	2dd\
.	.	1r	1e	2cc\
.	.	.	.	[2b\
=11	=11	=11	=11	=11
0.r	0.r	1r	2d/	2b\]
.	.	.	2.f/	2a/
.	.	1A	.	1cc
.	.	.	4e/	.
.	.	.	1c	.
.	.	1F	.	2a/
.	.	.	[2f/	[2dd\
=12	=12	=12	=12	=12
1r	1r	1D	4f/]	4dd\]
.	.	.	4e/	4cc\
.	.	.	4d/	4b\
.	.	.	4c/	4a/
2r	1r	0E	2B/	2g/
2AA/	.	.	2c/	1a
1E	1E	.	1B	.
.	.	.	.	2g#i/
=13	=13	=13	=13	=13
1AA	2E/	0.r	1A	1a
.	1A	.	.	.
2AA/	.	.	1r	1r
2.E\	2G/	.	.	.
.	2F/	.	1r	1r
4D\	.	.	.	.
2D\	2F/	.	.	.
=14	=14	=14	=14	=14
2C/	1E	0.r	0.r	0.r
2C/	.	.	.	.
1BB	1D	.	.	.
1AA	2r	.	.	.
.	[2A/	.	.	.
=15	=15	=15	=15	=15
2r	4A/]	0.r	0.r	0.r
.	4G/	.	.	.
2E\	2E/	.	.	.
2D\	2F/	.	.	.
2.E\	2E/	.	.	.
.	2.G/	.	.	.
4C/	.	.	.	.
2BB/	.	.	.	.
.	4F/	.	.	.
=16	=16	=16	=16	=16
2r	2D/	0.r	0.r	0.r
1E	2r	.	.	.
.	1G	.	.	.
2E\	.	.	.	.
2.E\	2G/	.	.	.
.	[2G/	.	.	.
4C/	.	.	.	.
=17	=17	=17	=17	=17
2BB/	2G/]	0.r	0.r	0.r
2AA/	2F/	.	.	.
2r	1E	.	.	.
2E\	.	.	.	.
2D\	2A/	.	.	.
2E\	2G/	.	.	.
=18	=18	=18	=18	=18
4AA/	2A/	0.r	0.r	0.r
2A\	.	.	.	.
.	4D/	.	.	.
4F\	2A/	.	.	.
2E\	.	.	.	.
.	4G/	.	.	.
4D\	4F/	.	.	.
8C/L	4E/	.	.	.
8BB/J	.	.	.	.
4AA/	2F/	.	.	.
2D\	.	.	.	.
.	2E/	.	.	.
4C#i/	.	.	.	.
=19	=19	=19	=19	=19
0D	2.D/	1r	2r	0.r
.	.	.	2A/	.
.	4E/	.	.	.
.	4F/	1D	2B/	.
.	4G/	.	.	.
.	2.A/	.	1d	.
1AA	.	1A	.	.
.	8G/L	.	.	.
.	8F/J	.	.	.
.	2E/	.	2c#i/	.
=20	=20	=20	=20	=20
1r	2D/	1B	1d	2r
.	2F/	.	.	2d/
2r	1E	1c	1r	2e/
2C/	.	.	.	1g
2BB/	1D	1d	1r	.
2D\	.	.	.	2f/
=21	=21	=21	=21	=21
2r	1r	1e	0.r	2.g/
2C/	.	.	.	.
.	.	.	.	4a/
0D	1r	0f	.	2b\
.	.	.	.	2a/
.	2r	.	.	2b\
.	2A/	.	.	[2dd\
=22	=22	=22	=22	=22
2r	2B\	1f	0.r	4dd\]
.	.	.	.	4cc\
2D\	1d	.	.	4b\
.	.	.	.	4a/
2.E\	.	1e	.	1g
.	2c\	.	.	.
4F\	.	.	.	.
2G\	2B\	[1d	.	1r
2F\	2A/	.	.	.
=23	=23	=23	=23	=23
1G	1B	2d\]	1r	0.r
.	.	4c\	.	.
.	.	4B\	.	.
2r	1A	0c	1e	.
2.C/	.	.	.	.
.	2r	.	1g	.
4D\	.	.	.	.
2E\	2G/	.	.	.
=24	=24	=24	=24	=24
1AA	2A/	0.r	2f/	0.r
.	2c\	.	2e/	.
1r	2B\	.	2d/	.
.	1A	.	2.e/	.
1r	.	.	.	.
.	.	.	4c/	.
.	2G/	.	2B/	.
=25	=25	=25	=25	=25
2.D\	1F	0.r	1A	2r
.	.	.	.	2a/
4C/	.	.	.	.
2AA/	2E/	.	1r	2cc\
2C/	2.A/	.	.	2cc\
2D\	.	.	1r	2b\
.	4F/	.	.	.
2E\	2G/	.	.	2b\
=26	=26	=26	=26	=26
2F\	2A/	0.r	2r	2a/
1E	2r	.	2e/	2cc\
.	1r	.	1g	2b\
2C/	.	.	.	1ee
1D	1r	.	1f	.
.	.	.	.	2dd\
=27	=27	=27	=27	=27
1AA	0.r	0.r	2e/	2cc\
.	.	.	1a	2a/
1r	.	.	.	1b
.	.	.	2g/	.
1r	.	.	2f/	1a
.	.	.	2d/	.
=28	=28	=28	=28	=28
0.r	0.r	0.r	4e/	2g/
.	.	.	4d/	.
.	.	.	4c/	2.a/
.	.	.	4B/	.
.	.	.	2c/	.
.	.	.	.	4g/
.	.	.	2.d/	4f/
.	.	.	.	4e/
.	.	.	.	1f
.	.	.	4c/	.
.	.	.	4B/	.
.	.	.	4A/	.
=29	=29	=29	=29	=29
1r	2.A/	1r	1c	1e
.	4A/	.	.	.
2.F\	2A/	1c	1r	1r
.	1A	.	.	.
4F\	.	.	.	.
2F\	.	1d	1r	1r
2G\	2B\	.	.	.
=30	=30	=30	=30	=30
1E	1c	1e	0.r	0.r
2D\	2.d\	1.f	.	.
2D\	.	.	.	.
.	4c\	.	.	.
2D\	4B\	.	.	.
.	4A/	.	.	.
2D\	2A/	4e\	.	.
.	.	4d\	.	.
=31	=31	=31	=31	=31
2E\	2G/	0c	0.r	0.r
2.F\	2.A/	.	.	.
4E\	4G/	.	.	.
2.C/	2A/	.	.	.
.	2G/	1c	.	.
4D\	.	.	.	.
2E\	[2E/	.	.	.
=32	=32	=32	=32	=32
2AA/	2E/]	1c	0.r	1r
2C/	2A/	.	.	.
1BB	2.G/	0d	.	1r
.	4A/	.	.	.
1r	1B	.	.	1g
=33	=33	=33	=33	=33
2r	0A	0.r	1e	1a
1A	.	.	.	.
.	.	.	1f	2.cc\
2F\	.	.	.	.
.	.	.	.	4a/
2E\	1G	.	2g/	2b\
2E\	.	.	2g/	2cc\
=34	=34	=34	=34	=34
1D	2r	0.r	2f/	2b\
.	2F/	.	1a	2.dd\
1F	2.A/	.	.	.
.	.	.	.	4cc\
.	.	.	2d/	4b\
.	4B\	.	.	4a/
2E\	2c\	.	2.e/	2.g/
[2E\	2B\	.	.	.
.	.	.	4d/	4a/
=35	=35	=35	=35	=35
4E\]	2G/	0e	2B/	2b\
4D\	.	.	.	.
4C/	2.A/	.	2A/	1cc
4BB/	.	.	.	.
1AA	.	.	1c	.
.	8G/L	.	.	.
.	8F/J	.	.	.
.	2E/	.	.	2a/
1r	1G	1d	1B	1b
=36	=36	=36	=36	=36
2AA/	1A	1c	2r	1a
2C/	.	.	2e/	.
2D\	1r	0B	2d/	2f/
2.E\	.	.	2.g/	2e/
.	2.G/	.	.	1g
4D\	.	.	4f/	.
2BB/	.	.	4e/	.
.	4F/	.	4d/	.
=37	=37	=37	=37	=37
2C/	2E/	0.A	2e/	1a
2D\	2D/	.	2f/	.
4C/	4E/	.	4e/	1r
4D\	4D/	.	4f/	.
4C/	2A/	.	4e/	.
2D\	.	.	2f/	.
.	2D/	.	.	1r
8C/L	.	.	2d/	.
8BB/J	.	.	.	.
2AA/	2E/	.	.	.
.	.	.	4c#i/	.
=38	=38	=38	=38	=38
1D	1D	0.r	1d	0f
1r	1r	.	1d	.
1r	1r	.	1d	1f
=39	=39	=39	=39	=39
0.r	0.r	0c	1e	1g
.	.	.	1e	2g/
.	.	.	.	2.a/
.	.	1d	1f	.
.	.	.	.	4a/
.	.	.	.	2a/
=40	=40	=40	=40	=40
0.r	0.r	1d	1f	2a/
.	.	.	.	1a
.	.	1c	0e	.
.	.	.	.	1cc
.	.	1A	.	.
.	.	.	.	4b\
.	.	.	.	4a/
=41	=41	=41	=41	=41
0.r	0.r	0B-i	1r	2g/
.	.	.	.	2f/
.	.	.	1d	1g
.	.	1A	2.c/	2.a/
.	.	.	4d/	4b\
=42	=42	=42	=42	=42
0.r	0.r	1F	2c/	2cc\
.	.	.	1f	1dd
.	.	0G	.	.
.	.	.	4e/	2cc\
.	.	.	4d/	.
.	.	.	1e	1b
=43	=43	=43	=43	=43
2.F\	0.r	1.F	2.A/	1.a
4G\	.	.	4B/	.
4A\	.	.	4c/	.
4B-i\	.	.	4d/	.
1A	.	4E/	1c	4g/
.	.	4D/	.	4f/
.	.	1C	.	1e
4G\	.	.	4B/	.
4F\	.	.	4A/	.
=44	=44	=44	=44	=44
2.E\	2.C/	0.r	2G/	0.r
.	.	.	1c	.
4D\	4D/	.	.	.
4C/	2E/	.	.	.
4AA/	.	.	.	.
1A	1F	.	2A/	.
.	.	.	1B	.
2G#i\	2E/	.	.	.
=45	=45	=45	=45	=45
1A	1F	0.r	1A	2r
.	.	.	.	2a/
1AA	1E	.	2r	2cc\
.	.	.	2A/	2cc\
1r	1r	.	2c/	2cc\
.	.	.	2G/	2b\
=46	=46	=46	=46	=46
0.r	0.r	0.r	2c/	1a
.	.	.	2d/	.
.	.	.	1e	2r
.	.	.	.	2g/
.	.	.	2r	2a/
.	.	.	2d/	2f/
=47	=47	=47	=47	=47
0.r	2.E/	0.r	2e/	1e
.	.	.	2c/	.
.	4F/	.	.	.
.	1G	.	1B	2d/
.	.	.	.	2g/
.	2F/	.	2c/	2a/
.	[2G/	.	2B/	[2b\
=48	=48	=48	=48	=48
0.r	2G/]	0.r	1G	2b\]
.	2E/	.	.	4a/
.	.	.	.	4g/
.	1D	.	2r	1f#i
.	.	.	2d/	.
.	1E	.	2B/	2r
.	.	.	[2e/	[2g/
=49	=49	=49	=49	=49
0.r	2E/	0.r	2e/]	2g/]
.	1E	.	2e/	2g/
.	.	.	2e/	2g/
.	2D/	.	2f/	2a/
.	2G/	.	1d	2b\
.	2G/	.	.	2b\
=50	=50	=50	=50	=50
0AA	2.A/	0c	2r	1e
.	.	.	1a	.
.	8G/L	.	.	.
.	8F/J	.	.	.
.	2E/	.	.	1r
.	2F/	.	2.a/	.
[1AA	2E/	1A	.	[1a
.	.	.	4g/	.
.	2C/	.	[2e/	.
=51	=51	=51	=51	=51
1AA]	2r	1A	2e/]	1a]
.	2c\	.	2.f/	.
0D	2A/	0F	.	0a
.	.	.	4e/	.
.	2.d\	.	4d/	.
.	.	.	4c/	.
.	.	.	2.d/	.
.	4c\	.	.	.
.	2A/	.	.	.
.	.	.	4c/	.
=52	=52	=52	=52	=52
2r	2c\	1.E	4e/	2.g/
.	.	.	4f/	.
1E	2B\	.	1g	.
.	.	.	.	4a/
.	2G/	.	.	1b
4D\	2A/	2F/	4f/	.
4C/	.	.	4e/	.
2BB/	1B	1G	2d/	1b
2E\	.	.	[2e/	.
=53	=53	=53	=53	=53
2AA/	2r	1A	2e/]	2cc\
2D\	2A/	.	2.f/	2.dd\
2r	2B\	2G/	.	.
.	.	.	4e/	4cc\
2D\	2d\	2F/	2d/	4b\
.	.	.	.	4a/
2C/	2r	1E	2.e/	2cc\
[2E\	[2G/	.	.	[2b\
.	.	.	8d/L	.
.	.	.	8c/J	.
=54	=54	=54	=54	=54
4E\]	4G/]	0.r	4B/	4b\]
4C/	4A/	.	4c/	4a/
2BB/	2B\	.	2d/	4g/
.	.	.	.	4f/
2C/	2G/	.	2e/	2e/
2AA/	2A/	.	2c/	1a
1E	1B	.	1B	.
.	.	.	.	2g#i/
=55	=55	=55	=55	=55
1AA	0A	0.r	1r	1a
1r	.	.	1e	1r
1r	1r	.	1f	1r
=56	=56	=56	=56	=56
0.r	1A	0.r	1e	0.r
.	1B	.	2d/	.
.	.	.	1g	.
.	1A	.	.	.
.	.	.	2f/	.
=57	=57	=57	=57	=57
0.r	2G/	0.r	2g/	0.r
.	1c	.	2e/	.
.	.	.	1f	.
.	2B\	.	.	.
.	2c\	.	1e	.
.	2A/	.	.	.
=58	=58	=58	=58	=58
0.r	1B	0.r	2r	0.r
.	.	.	2d/	.
.	2A/	.	2f/	.
.	2A/	.	2f/	.
.	2c\	.	1e	.
.	2c\	.	.	.
=59	=59	=59	=59	=59
0.r	2.B\	0.r	2.d/	0.r
.	4A/	.	4c/	.
.	4G/	.	2d/	.
.	4F/	.	.	.
.	2E/	.	2.e/	.
.	2.G/	.	.	.
.	.	.	4d/	.
.	.	.	[2B/	.
.	4A/	.	.	.
=60	=60	=60	=60	=60
0.r	4B\	0.r	2B/]	0.r
.	8A/L	.	.	.
.	8B/J	.	.	.
.	2c\	.	2A/	.
.	2A/	.	2.c/	.
.	1A	.	.	.
.	.	.	4d/	.
.	.	.	2e/	.
.	4G/	.	[2d/	.
.	4F/	.	.	.
=61	=61	=61	=61	=61
1r	1E	1r	4d/]	1r
.	.	.	4B/	.
.	.	.	2c#i/	.
0D	1.F	0D	1.d	0a
.	2G/	.	4cni/	.
.	.	.	4B/	.
=62	=62	=62	=62	=62
1.D	1A	1.F	1A	1.a
.	1D	.	1d	.
2BB/	.	2G/	.	2b\
1AA	2E/	1A	1r	1cc
.	2F/	.	.	.
=63	=63	=63	=63	=63
1GG	1G	1B	1d	1b
1r	2C/	1.c	2e/	1.a
.	2.F/	.	2.f/	.
1AA	.	.	.	.
.	4G/	.	4e/	.
.	2A/	4B\	4d/	4g/
.	.	4A/	4c/	4a/
=64	=64	=64	=64	=64
1.E	2r	1.G	2B/	1b
.	1E	.	1e	.
.	.	.	.	2cc\
2D\	2F/	2A/	2A/	1dd
2BB/	2G/	2B\	2d/	.
2AA/	2A/	2c\	2e/	2cc\
=65	=65	=65	=65	=65
2r	1D	1.d	1f	2a/
2D\	.	.	.	1dd
2BB/	2F/	.	2d/	.
2.C/	2.E/	4c\	2g/	2ee\
.	.	4B\	.	.
.	.	2A/	2r	2cc\
4AA/	4F/	.	.	.
[2E\	[2G/	2G/	2e/	2b\
=66	=66	=66	=66	=66
2E\]	4G/]	1c	1e	2g/
.	4C/	.	.	.
2AA/	2C/	.	.	2a/
2BB/	2D/	2B\	2d/	2g/
2C/	2E/	1A	2c/	2a/
1GG	2.D/	.	1d	1b
.	.	2G/	.	.
.	4E/	.	.	.
=67	=67	=67	=67	=67
2D\	1F	[0.Al	2.d/	0a
8D\L	.	.	.	.
8E\	.	.	.	.
8F\	.	.	8c/L	.
8G\J	.	.	8B/J	.
4A\	2.F/	.	4c/	.
2D\	.	.	4A/	.
.	.	.	2d/	.
8C/L	8E/L	.	.	.
8BB/J	8D/J	.	.	.
2AA/	2E/	.	2c/	2.a/
2D\	2F/	.	2d/	.
.	.	.	.	4g/
=68	=68	=68	=68	=68
2E\	2C/	0.A]	2r	2e/
2.F\	2D/	.	2A/	2d/
.	1F	.	1d	1a
4G\	.	.	.	.
2A\	.	.	.	.
1AAl	1El	.	1c#l	1al
!!LO:LB:i:g=z
=69||	=69||	=69||	=69||	=69||
*>B	*>B	*>B	*>B	*>B
*clefF4	*clefGv2	*clefGv2	*clefG2	*clefG2
*k[]	*k[]	*k[]	*k[]	*k[]
*M2/1	*M2/1	*M2/1	*M2/1	*M2/1
*met(C)	*met(C)	*met(C)	*met(C)	*met(C)
!!section: Et resurrexit
!!!OMD: Et resurrexit
0AA	0A	0r	0r	0r
=70	=70	=70	=70	=70
1AA	1c	0r	0r	0r
1AA	1c	.	.	.
=71	=71	=71	=71	=71
1.BB	1.d	0r	0r	0r
4AA/	4c\	.	.	.
4GG/	4B\	.	.	.
=72	=72	=72	=72	=72
1C	1A	0r	0r	0r
1D	1r	.	.	.
=73	=73	=73	=73	=73
2r	1.A	0r	0r	0r
2D\	.	.	.	.
2C/	.	.	.	.
[2D\	2A/	.	.	.
=74	=74	=74	=74	=74
4D\]	1A	0r	0r	0r
4E\	.	.	.	.
1F	.	.	.	.
.	1A	.	.	.
4E\	.	.	.	.
4D\	.	.	.	.
=75	=75	=75	=75	=75
4E\	2G/	0r	0r	0r
4D\	.	.	.	.
4C/	2.A/	.	.	.
4BB/	.	.	.	.
2.AA/	.	.	.	.
.	4B\	.	.	.
.	[2c\	.	.	.
4BB/	.	.	.	.
=76	=76	=76	=76	=76
4C/	2c\]	0r	0r	0r
4D\	.	.	.	.
4E\	4B\	.	.	.
2F\	4A/	.	.	.
.	2.G/	.	.	.
4E\	.	.	.	.
4E\	.	.	.	.
8D\L	4F/	.	.	.
8E\J	.	.	.	.
=77	=77	=77	=77	=77
1F	1D	0r	0r	0r
2r	1C	.	.	.
[2E\	.	.	.	.
=78	=78	=78	=78	=78
4E\]	1F	0r	0r	0r
4C/	.	.	.	.
2D\	.	.	.	.
1E	1G	.	.	.
=79	=79	=79	=79	=79
1AA	2r	0r	0r	0r
.	2A/	.	.	.
2r	2B\	.	.	.
2AA/	[2c\	.	.	.
=80	=80	=80	=80	=80
2.E\	4c\]	0r	0r	0r
.	8B/L	.	.	.
.	8A/J	.	.	.
.	2G/	.	.	.
8D\L	.	.	.	.
8E\J	.	.	.	.
2F\	2A/	.	.	.
[2E\	4B\	.	.	.
.	[4c\	.	.	.
=81	=81	=81	=81	=81
4E\]	4c\]	0r	0r	0r
4C/	4A/	.	.	.
2D\	1A	.	.	.
1BB	.	.	.	.
.	2G#i/	.	.	.
=82	=82	=82	=82	=82
0AA	0A	0r	1r	1r
.	.	.	1c	1a
=83	=83	=83	=83	=83
0r	0r	0r	2.d/	1a
.	.	.	4c/	.
.	.	.	2d/	2.a/
.	.	.	[2f/	.
.	.	.	.	4b\
=84	=84	=84	=84	=84
0r	0r	0r	2f/]	2cc\
.	.	.	2d/	1dd
.	.	.	1e	.
.	.	.	.	2cc#i\
=85	=85	=85	=85	=85
0r	0r	0r	1d	1dd
.	.	.	1d	1r
=86	=86	=86	=86	=86
0r	0r	0r	2.f/	1a
.	.	.	4g/	.
.	.	.	4a/	[1cc
.	.	.	4b-i\	.
.	.	.	[2a/	.
=87	=87	=87	=87	=87
0r	0r	0r	2a/]	1cc]
.	.	.	4g/	.
.	.	.	4f/	.
.	.	.	2.e/	1cc
.	.	.	4d/	.
=88	=88	=88	=88	=88
0r	0r	0r	1g	1b
.	.	.	1g	[1dd
=89	=89	=89	=89	=89
0r	0r	0r	1.f	2dd\]
.	.	.	.	2cc\
.	.	.	.	1a
.	.	.	4e/	.
.	.	.	4d/	.
=90	=90	=90	=90	=90
0r	0r	0r	1e	2.g/
.	.	.	.	4e/
.	.	.	2r	2f/
.	.	.	[2e/	2e/
=91	=91	=91	=91	=91
0r	0r	0r	2e/]	2.g/
.	.	.	2c/	.
.	.	.	.	4a/
.	.	.	2B/	2b\
.	.	.	2A/	[2cc\
=92	=92	=92	=92	=92
0r	0r	0r	1e	2cc\]
.	.	.	.	2b\
.	.	.	2f/	2a/
.	.	.	[2e/	[2b\
=93	=93	=93	=93	=93
0r	0r	0r	4e/]	4b\]
.	.	.	4c/	4a/
.	.	.	2d/	1a
.	.	.	1B	.
.	.	.	.	2g#i/
=94	=94	=94	=94	=94
0r	0r	0r	1A	1a
.	.	.	1r	1r
=95	=95	=95	=95	=95
0D	0F	0r	0A	0a
=96	=96	=96	=96	=96
1D	1A	0r	1d	1f
1D	2A/	.	1d	1f
.	[2A/	.	.	.
=97	=97	=97	=97	=97
0AA	2A/]	0r	1c	1e
.	4G/	.	.	.
.	4F/	.	.	.
.	2E/	.	1A	1e
.	[2A/	.	.	.
=98	=98	=98	=98	=98
1r	2A/]	0r	1d	1f
.	2.F/	.	.	.
1AA	.	.	1c	1e
.	4G/	.	.	.
.	2A/	.	.	.
=99	=99	=99	=99	=99
1D	1F	0r	1d	1d
1D	1D	.	1d	1f
=100	=100	=100	=100	=100
1F	1r	0r	1c	1a
1F	1D	.	1d	1a
=101	=101	=101	=101	=101
1.E	1.G	0c	0e	1g
.	.	.	.	1g
2E\	2G/	.	.	.
=102	=102	=102	=102	=102
1D	1A	1d	1r	2f/
.	.	.	.	1a
1D	2D/	1d	1f	.
.	2F/	.	.	2b\
=103	=103	=103	=103	=103
2E\	2G/	1c	2e/	1cc
2.F\	2.A/	.	1c	.
.	.	1A	.	1f
4E\	4G/	.	.	.
4D\	4F/	.	2f/	.
4C/	4E/	.	.	.
=104	=104	=104	=104	=104
2.BB-/	1D	1B-	2g/	2r
.	.	.	4f/	1f
4C/	.	.	4e/	.
2D\	2.D/	1B-i	1d	.
2BB-i/	.	.	.	2g/
.	4E/	.	.	.
=105	=105	=105	=105	=105
2r	0F	1A	1c	1.a
1F	.	.	.	.
.	.	[1c	1r	.
4E\	.	.	.	4g/
4D\	.	.	.	4f/
=106	=106	=106	=106	=106
0C	1G	2c\]	0c	0e
.	.	4B-i\	.	.
.	.	4A/	.	.
.	1E	1G	.	.
=107	=107	=107	=107	=107
1D	2r	1F	1A	1d
.	2F/	.	.	.
2C/	2E/	1r	2A/	1r
[2D\	[2F/	.	2B-i/	.
=108	=108	=108	=108	=108
4D\]	4F/]	0F	2A/	1.d
4C/	4E/	.	.	.
4BB-i/	4D/	.	2.B-i/	.
4AA/	4C/	.	.	.
2BB-i/	2D/	.	.	.
.	.	.	8A/L	.
.	.	.	8B-i/J	.
2AA/	2A/	.	2c/	2c/
=109	=109	=109	=109	=109
1BB-i	2F/	1D	2B-i/	1d
.	2.G/	.	1G	.
1BB-i	.	1D	.	1d
.	4F/	.	.	.
.	2D/	.	2F/	.
=110	=110	=110	=110	=110
0AA	2r	0C	1A	1e
.	1A	.	.	.
.	.	.	1r	1r
.	2F/	.	.	.
=111	=111	=111	=111	=111
0E	0G	0r	0B	0e
=112	=112	=112	=112	=112
1E	0G	0r	1B	1e
[1E	.	.	[1B	[1e
=113	=113	=113	=113	=113
2E\]	1.G	0r	1B]	1e]
4D\	.	.	.	.
4C/	.	.	.	.
1BB	.	.	1B	1d
.	2F/	.	.	.
=114	=114	=114	=114	=114
1AA	1A	0r	1c	2e/
.	.	.	.	2f/
1E	1G	.	1B	2g/
.	.	.	.	[2e/
=115	=115	=115	=115	=115
1F	2.A/	1r	1A	2e/]
.	.	.	.	2d/
.	4B\	.	.	.
2E\	1c	1C	2.G/	1e
2C/	.	.	.	.
.	.	.	4A/	.
=116	=116	=116	=116	=116
1D	2r	1F	1B	2r
.	2F/	.	.	2d/
2C/	2G/	2E/	2c/	2e/
[2D\	[2F/	[2D/	[2B/	[2f/
=117	=117	=117	=117	=117
4D\]	4F/]	2D/]	4B/]	2f/]
4C/	4G/	.	4A/	.
4BB/	2A/	2C/	1A	2e/
4AA/	.	.	.	.
1BB	2F/	1D	.	1d
.	2D/	.	2G#i/	.
=118	=118	=118	=118	=118
1AA	1E	0r	1A	1r
1r	1D	.	1r	[1f
=119	=119	=119	=119	=119
0r	1r	0r	1A	1f]
.	[1A	.	1c	1f
=120	=120	=120	=120	=120
0r	1A]	0r	1c	1a
.	1F	.	1d	1a
=121	=121	=121	=121	=121
0r	1E	0r	1e	1g
.	1E	.	1e	1g
=122	=122	=122	=122	=122
0r	1D	0r	1.f	1a
.	1D	.	.	1b
.	.	.	4e/	.
.	.	.	4d/	.
=123	=123	=123	=123	=123
0r	1A	0r	2.e/	2.cc\
.	.	.	4d/	4b\
.	2r	.	2e/	4a/
.	.	.	.	4g/
.	[2D/	.	[2f/	[2a/
=124	=124	=124	=124	=124
0r	4D/]	0r	4f/]	4a/]
.	4E/	.	4e/	4g/
.	4F/	.	4d/	4f/
.	4D/	.	4c/	4e/
.	1G	.	1B	1d
=125	=125	=125	=125	=125
0r	2F/	0r	1r	1d
.	2.G/	.	.	.
.	.	.	1B	1e
.	4F/	.	.	.
.	4E/	.	.	.
.	4D/	.	.	.
=126	=126	=126	=126	=126
2r	1C	0r	1c	1e
2C/	.	.	.	.
4D\	2r	.	1A	1d
4C/	.	.	.	.
4BB/	2F/	.	.	.
4AA/	.	.	.	.
=127	=127	=127	=127	=127
2GG/	2.G/	0r	1B	1dd
1G	.	.	.	.
.	4A/	.	.	.
.	2B\	.	[1e	2b\
[2A\	[2c\	.	.	2a/
=128	=128	=128	=128	=128
4A\]	4c\]	0r	1e]	1cc
4G\	4B\	.	.	.
4F\	4A/	.	.	.
4E\	4G/	.	.	.
1D	2d\	.	2f/	2b\
.	2D/	.	2d/	[2a/
=129	=129	=129	=129	=129
0r	1E	0r	2B/	4a/]
.	.	.	.	4g/
.	.	.	2G/	1g
.	2D/	.	4A/	.
.	.	.	4B/	.
.	2r	.	4c/	2f#i/
.	.	.	4d/	.
=130	=130	=130	=130	=130
0r	2.G/	0r	2B/	2.g/
.	.	.	2.e/	.
.	4F/	.	.	4a/
.	2E/	.	.	4b\
.	.	.	4c/	4cc\
.	2D/	.	2d/	[2b\
=131	=131	=131	=131	=131
0r	1E	0r	2B/	2b\]
.	.	.	2c/	4a/
.	.	.	.	4g/
.	1D	.	[1d	1f#i
=132	=132	=132	=132	=132
0D	0r	0r	2d/]	1r
.	.	.	2B/	.
.	.	.	2A/	1f#i
.	.	.	[2d/	.
=133	=133	=133	=133	=133
1E	0r	0r	4d/]	1g
.	.	.	4c/	.
.	.	.	4B/	.
.	.	.	4A/	.
1E	.	.	1B	1g
=134	=134	=134	=134	=134
1AA	0r	0c	1A	1a
1E	.	.	1r	1g
=135	=135	=135	=135	=135
2D\	0r	1d	0r	2f/
2.BB/	.	.	.	2.g/
.	.	1d	.	.
4C/	.	.	.	4f/
2D\	.	.	.	4e/
.	.	.	.	4d/
=136	=136	=136	=136	=136
2r	0r	1c	0r	1e
2AA/	.	.	.	.
1D	.	1A	.	1d
=137	=137	=137	=137	=137
0GG	0r	0B	0r	2e/
.	.	.	.	1g
.	.	.	.	4f/
.	.	.	.	4e/
=138	=138	=138	=138	=138
1D	0r	1A	2.d/	1f
.	.	.	8c/L	.
.	.	.	8B/J	.
2r	.	[1c	2A/	1r
[2AA/	.	.	[2e/	.
=139	=139	=139	=139	=139
2AA/]	0r	2c\]	2e/]	0r
2BB/	.	4B\	2d/	.
.	.	4A/	.	.
2.C/	.	1G	2.e/	.
4D\	.	.	4d/	.
=140	=140	=140	=140	=140
1E	1G	0r	2B/	0r
.	.	.	2.e/	.
1r	2.A/	.	.	.
.	.	.	8d/L	.
.	.	.	8c/J	.
.	.	.	4B/	.
.	8G/L	.	4A/	.
.	8F/J	.	.	.
=141	=141	=141	=141	=141
0r	2E/	0r	1c	0r
.	2A/	.	.	.
.	2B\	.	1B	.
.	[2d\	.	.	.
=142	=142	=142	=142	=142
0r	4d\]	0r	1A	1a
.	4c\	.	.	.
.	4c\	.	.	.
.	4A/	.	.	.
.	2B\	.	1r	2g/
.	2A/	.	.	[2a/
=143	=143	=143	=143	=143
1AA	2.c\	0r	0r	4a/]
.	.	.	.	8g/L
.	.	.	.	8f/J
.	.	.	.	4e/
.	4B\	.	.	4d/
1D	4B\	.	.	1f
.	4A/	.	.	.
.	[2d\	.	.	.
=144	=144	=144	=144	=144
1AA	4d\]	0r	0r	1e
.	4c\	.	.	.
.	2.c\	.	.	.
1D	.	.	.	1d
.	4B\	.	.	.
.	2B\	.	.	.
=145	=145	=145	=145	=145
0r	2A/	0r	2c/	0r
.	2B\	.	2d/	.
.	2A/	.	2e/	.
.	[2d\	.	[2f/	.
=146	=146	=146	=146	=146
0r	4d\]	0r	4f/]	0r
.	4c\	.	4e/	.
.	4B-i\	.	2f/	.
.	4A/	.	.	.
.	2B-i\	.	2g/	.
.	2A/	.	2c/	.
=147	=147	=147	=147	=147
0r	1F	0r	2d/	0r
.	.	.	1f	.
.	1G	.	.	.
.	.	.	2e/	.
=148	=148	=148	=148	=148
0r	2.F/	0r	2.f/	0r
.	4G/	.	4e/	.
.	1A	.	1c	.
=149	=149	=149	=149	=149
2.D\	4D/	0F	1d	2.a/
.	4E/	.	.	.
.	4F/	.	.	.
8C/L	4G/	.	.	4b\
8BB/J	.	.	.	.
2AA/	2.A/	.	2r	2cc\
2BB-/	.	.	2d/	2dd\
.	4G/	.	.	.
=150	=150	=150	=150	=150
2AA/	2A/	0F	2.f/	2cc\
2BB-i/	2D/	.	.	2dd\
.	.	.	4g/	.
2AA/	2r	.	2a/	2cc\
[2D\	2A/	.	[2f/	[2a/
=151	=151	=151	=151	=151
4D\]	2F/	1D	4f/]	2a/]
4C/	.	.	4e/	.
4BB-i/	2.G/	.	2d/	2g/
4AA/	.	.	.	.
1GG	.	1D	2r	1b
.	4F/	.	.	.
.	2D/	.	2g/	.
=152	=152	=152	=152	=152
1AA	2r	0C	2e/	2cc\
.	2.c\	.	2.f/	1a
1E	.	.	.	.
.	4B\	.	4e/	.
.	[2c\	.	[2e/	2g/
=153	=153	=153	=153	=153
1F	2c\]	1r	2e/]	1a
.	2A/	.	2d/	.
2.E\	1G	1C	1e	1r
4C/	.	.	.	.
=154	=154	=154	=154	=154
1D	2r	1F	1d	1a
.	2F/	.	.	.
1GG	1G	2E/	1r	1b-i
.	.	[2D/	.	.
=155	=155	=155	=155	=155
1AA	2F/	2D/]	1a	2a/
.	2E/	2C/	.	2cc\
2r	2D/	1D	2.f/	2b-i\
2D\	2F/	.	.	[2a/
.	.	.	4d/	.
=156	=156	=156	=156	=156
2C/	2E/	0r	2e/	2a/]
2AA/	1A	.	2c/	2f/
1E	.	.	1B	1e
.	2G#i/	.	.	.
=157	=157	=157	=157	=157
1r	1A	0r	1c	0r
1AA	1r	.	1r	.
=158	=158	=158	=158	=158
2BB/	0r	2.D/	0r	0r
1D	.	.	.	.
.	.	4E/	.	.
.	.	2F/	.	.
4C/	.	[2G/	.	.
4BB/	.	.	.	.
=159	=159	=159	=159	=159
2.C/	0r	2G/]	0r	0r
.	.	2E/	.	.
8BB/L	.	.	.	.
8C/J	.	.	.	.
1D	.	2.F/	.	.
.	.	8E/L	.	.
.	.	8F/J	.	.
=160	=160	=160	=160	=160
1r	0r	1G	0r	0r
1BB	.	1r	.	.
=161	=161	=161	=161	=161
1C	0r	1E	0r	0r
1D	.	1F	.	.
=162	=162	=162	=162	=162
1E	0r	1G	0r	0r
2r	.	1A	.	.
2D\	.	.	.	.
=163	=163	=163	=163	=163
2E\	0r	2r	0r	0r
2F\	.	2A/	.	.
2G\	.	2B\	.	.
2E\	.	2c\	.	.
=164	=164	=164	=164	=164
2D\	0r	2d\	0r	0r
2.F\	.	2d\	.	.
.	.	2.c\	.	.
4E\	.	.	.	.
[2E\	.	.	.	.
.	.	4B\	.	.
=165	=165	=165	=165	=165
4E\]	0r	1G	0r	0r
8D/L	.	.	.	.
8C/J	.	.	.	.
4.BB/	.	.	.	.
8AA/	.	.	.	.
4E\	.	2c\	.	.
4F\	.	.	.	.
4G\	.	4B\	.	.
4A\	.	4c\	.	.
=166	=166	=166	=166	=166
4G\	0r	4B\	0r	0r
2A\	.	2c\	.	.
2D\	.	2B\	.	.
4C/	.	2A/	.	.
2BB/	.	.	.	.
.	.	4G#i/	.	.
=167	=167	=167	=167	=167
1AA	2r	1A	0r	0r
.	2A/	.	.	.
1GG	2B-\	1r	.	.
.	2B-i\	.	.	.
=168	=168	=168	=168	=168
0r	2A/	0r	1e	0r
.	2c\	.	.	.
.	2B-i\	.	2f/	.
.	[2A/	.	2f/	.
=169	=169	=169	=169	=169
0r	2A/]	0r	2e/	0r
.	2G/	.	2g/	.
.	1A	.	2f/	.
.	.	.	[2e/	.
=170	=170	=170	=170	=170
0r	2r	0r	2e/]	0r
.	2.d\	.	2d/	.
.	.	.	1e	.
.	4B\	.	.	.
.	2c\	.	.	.
=171	=171	=171	=171	=171
0r	2d\	0r	2r	0r
.	2A/	.	2.a/	.
.	1B-i	.	.	.
.	.	.	4f/	.
.	.	.	2g/	.
=172	=172	=172	=172	=172
0r	1A	0r	2a/	0r
.	.	.	2e/	.
.	2r	.	1f	.
.	[2d\	.	.	.
=173	=173	=173	=173	=173
0r	4d\]	0r	1e	0r
.	4c\	.	.	.
.	2c\	.	.	.
.	2B-i\	.	2r	.
.	2A/	.	[2a/	.
=174	=174	=174	=174	=174
0r	1c	0r	4a/]	0r
.	.	.	4g/	.
.	.	.	2g/	.
.	2A/	.	2f/	.
.	[2G/	.	2e/	.
=175	=175	=175	=175	=175
0r	2G/]	0r	2.g/	0r
.	2.B-i\	.	.	.
.	.	.	4f/	.
.	.	.	2.d/	.
.	4A/	.	.	.
.	[2F/	.	.	.
.	.	.	4c/	.
=176	=176	=176	=176	=176
0r	4F/]	0r	2.A/	0r
.	8E/L	.	.	.
.	8D/J	.	.	.
.	4C/	.	.	.
.	4D/	.	4B/	.
.	4E/	.	2c/	.
.	2F/	.	.	.
.	.	.	2d/	.
.	4G/	.	.	.
=177	=177	=177	=177	=177
0r	2A/	0r	2c/	0r
.	2B\	.	1f	.
.	[1c	.	.	.
.	.	.	2e/	.
=178	=178	=178	=178	=178
1F	1c]	0r	1f	0r
2E\	2r	.	1r	.
2D\	2B\	.	.	.
=179	=179	=179	=179	=179
1F	2A/	0r	0r	1a
.	2.d\	.	.	.
1E	.	.	.	1g
.	4c\	.	.	.
.	[2c\	.	.	.
=180	=180	=180	=180	=180
1F	2c\]	0r	0r	1a
.	2A/	.	.	.
1E	2B\	.	.	2g/
.	[2c\	.	.	2g/
=181	=181	=181	=181	=181
1F	2c\]	0r	0r	1a
.	4B\	.	.	.
.	4A/	.	.	.
1E	2c\	.	.	2g/
.	[2B\	.	.	2e/
=182	=182	=182	=182	=182
1D	2B\]	0r	1r	1f
.	1A	.	.	.
1E	.	.	1e	1e
.	2G#i/	.	.	.
=183	=183	=183	=183	=183
1AA	1A	0r	1c	0r
1r	1G	.	2d/	.
.	.	.	[2e/	.
=184	=184	=184	=184	=184
1r	1A	0r	2e/]	0r
.	.	.	2A/	.
2r	1D	.	2B/	.
2D\	.	.	2A/	.
=185	=185	=185	=185	=185
2C/	2E/	0r	2c/	0r
1D	2D/	.	2B/	.
.	2F/	.	2d/	.
2GG/	2G/	.	[2e/	.
=186	=186	=186	=186	=186
1AA	2E/	0r	2e/]	0r
.	2A/	.	2f/	.
1r	2G/	.	2e/	.
.	[2A/	.	[2f/	.
=187	=187	=187	=187	=187
0r	2A/]	0r	4f/]	0r
.	.	.	4d/	.
.	2D/	.	1d	.
.	1E	.	.	.
.	.	.	2c#i/	.
=188	=188	=188	=188	=188
1r	1D	0r	1d	0r
[1D	1r	.	1r	.
=189	=189	=189	=189	=189
1D]	1F	0D	0d	1a
1BB	2.G/	.	.	1b
.	4F/	.	.	.
=190	=190	=190	=190	=190
1AA	1.A	2E/	1c	1cc
.	.	1F	.	.
[1D	.	.	[1f	2a/
.	2D/	2G/	.	[2dd\
=191	=191	=191	=191	=191
0D]	1D	1A	1f]	4dd\]
.	.	.	.	4cc\
.	.	.	.	2.a/
.	1F	1B	1d	.
.	.	.	.	4g/
.	.	.	.	2f/
=192	=192	=192	=192	=192
1C	1G	1.c	1.e	2e/
.	.	.	.	1g
[1E	1C	.	.	.
.	.	4B\	4d/	2a/
.	.	4A/	4c/	.
=193	=193	=193	=193	=193
1E]	1G	1.G	2.B/	1b
.	.	.	4A/	.
1C	2r	.	1e	1cc
.	2E/	2A/	.	.
=194	=194	=194	=194	=194
2D\	2F/	2B\	2r	2b\
2E\	2G/	2c\	2e/	2g/
2F\	1A	[1d	2d/	2f/
[2D\	.	.	[2f/	2a/
=195	=195	=195	=195	=195
2D\]	1D	2d\]	2f/]	2r
1F	.	4c\	4e/	1a
.	.	4B\	4d/	.
.	2F/	2A/	1c	.
[2E\	2G/	2G/	.	2b\
=196	=196	=196	=196	=196
2E\]	2E/	1c	1e	2cc\
2C/	2A/	.	.	2a/
2D\	2D/	2B\	1f	2dd\
2AA/	2F/	2A/	.	2cc\
=197	=197	=197	=197	=197
1BB	2G/	2r	2d/	1b
.	2D/	2G/	1d	.
1AA	1E	[1Al	.	2r
.	.	.	2c#i/	2e/
=198	=198	=198	=198	=198
0r	0D	0A_	0d	1.f
.	.	.	.	2g/
=199	=199	=199	=199	=199
0D	0F	0A_	0d	[0al
=200	=200	=200	=200	=200
0AAl	0El	0A]	0el	0a]
==	==	==	==	==
*-	*-	*-	*-	*-
!!!RDF**kern: l=long note in original notation
!!!RDF**kern: i=editorial accidental
!!!RDF**kern: V=start of tuplet marker
!!!RDF**kern: Z=end of tuplet marker
!!!ENC:	Chris Gage 07-02-2012
!!!END:	2012/08/16/
!!!EED:	Jesse Rodin
!!!EEV:	2012/08/16/
!!!ONB:	Translated from MusicXML and edited on 2012/08/16/ by Craig Sapp
!!muse2ps: T^@{OPR}^u^@{ONM}{. }@{OTL}^C^@{COM}^i2I150v85,85,85,85,130Q16
